X:357
T: JETZT GEH ICH ANS BRUENNELEIN
N: E0203B
O: Europa, Mitteleuropa, Deutschland, Wetterau, Butzbach
R: erzaehlendes Volks - Lied, Todes - Ahnung; betrogene Liebe
M: 3/4
L: 1/8
K: G
D2 | D2B2A2 | G3FG2 |
A2B2d2 | A4
FG | A2A2ce | d2dcB2 |
ccB2A2 | G4
FG | A2A2ce | d2dcB2 |
ccB2A2 | G4

@@@ Tune index: 4007
